X: 1
T:The humors of whiskey
C:anon., arr.: Frank Nordberg
O:Ireland
V:1 up
V:2 down merge
R:Double jig
B:O'Neills's 1001
Z:(C) 1999 Arranged by Frank Nordberg - http://www.musicaviva.com
M:6/8
L:1/8
K:D -8va
V:1
"^(6)=D"A|dfd ecA|(dc)B (AG)F|GBB FAA|GFG E2A|
V:2
x|D,3 A,3|D,3 A,3|G,3 D,3|E,3 A,3|
V:1
(dc)d ecA|(dc)B AFA|Bcd efg|Mfdd d2::B|
V:2
D,3 A,3|D,3 A,3|G,3 A,3|D3 D,2::x|
V:1
AFA (dc)d|BGB ede|AFA dAF|GFG (EF)G|
V:2
D,3 D3|G,3 G3|D,3 D2 x|E,3 A,3|
V:1
AFA (dc)d|BGB ede|faf ede|fdd d2:|
V:2
D,3 A,3|G,3 A,3|D3 A,3|D,2A, D,2:|
